Origami/64x64/apps/safeeyes.svg

<svg width="64" height="64" version="1.1" viewBox="0 0 64 64" xmlns="http://www.w3.org/2000/svg">
 <path d="m32 4c-16.066 0-29 12.934-29 29s12.934 29 29 29 29-12.934 29-29-12.934-29-29-29z" style="opacity:.2"/>
 <path d="m32 3c-16.066 0-29 12.934-29 29s12.934 29 29 29 29-12.934 29-29-12.934-29-29-29z" style="fill:#d2d2d2"/>
 <circle transform="matrix(.70710678 .70710678 -.70710678 .70710678 0 0)" cx="45.961" cy=".707" r="21" style="opacity:.1"/>
 <circle transform="matrix(.70710678 .70710678 -.70710678 .70710678 0 0)" cx="45.254" r="21" style="fill:#4d4d4d"/>
 <path d="m44.727922 20.272c-1.664556-1.6644-3.571898-2.9216-5.601612-3.8006l-7.833418 17.2358 17.235728-7.8336c-0.879038-2.0296-2.136144-3.937-3.800698-5.6016z" style="opacity:.2"/>
 <path d="m44.727922 19.272c-1.664556-1.6644-3.571898-2.9216-5.601612-3.8006l-7.833418 17.2358 17.235728-7.8336c-0.879038-2.0296-2.136144-3.937-3.800698-5.6016z" style="fill:#57beff"/>
 <circle cx="32" cy="17" r="3" style="opacity:.2"/>
 <circle cx="32" cy="16" r="3" style="fill:#94ff57"/>
 <circle cx="32" cy="49" r="3" style="opacity:.2"/>
 <circle cx="32" cy="48" r="3" style="fill:#94ff57"/>
 <circle transform="rotate(90)" cx="33" cy="-48" r="3" style="opacity:.2"/>
 <circle transform="rotate(90)" cx="32" cy="-48" r="3" style="fill:#94ff57"/>
 <circle transform="rotate(90)" cx="33" cy="-16" r="3" style="opacity:.2"/>
 <circle transform="rotate(90)" cx="32" cy="-16" r="3" style="fill:#94ff57"/>
 <path d="M 32 3 C 15.934 3 3 15.934 3 32 C 3 32.110856 3.0114705 32.218902 3.0175781 32.328125 C 3.3736217 16.576183 16.159477 4 32 4 C 47.840523 4 60.626378 16.576183 60.982422 32.328125 C 60.988523 32.218902 61 32.110856 61 32 C 61 15.934 48.066 3 32 3 z" style="fill:#ffffff;opacity:.2"/>
</svg>

<svg xmlns="http://www.w3.org/2000/svg" width="64" height="64" version="1.1" viewBox="0 0 64 64">
 <path style="opacity:0.2" d="M 32,4 C 15.934,4 3,16.934 3,33 3,49.066 15.934,62 32,62 48.066,62 61,49.066 61,33 61,16.934 48.066,4 32,4 Z"/>
 <path style="fill:#d2d2d2" d="M 32,3 C 15.934,3 3,15.934 3,32 3,48.066 15.934,61 32,61 48.066,61 61,48.066 61,32 61,15.934 48.066,3 32,3 Z"/>
 <circle style="opacity:0.1" cx="45.961" cy=".707" r="21" transform="matrix(0.70710678,0.70710678,-0.70710678,0.70710678,0,0)"/>
 <circle style="fill:#4d4d4d" cx="45.254" cy="0" r="21" transform="matrix(0.70710678,0.70710678,-0.70710678,0.70710678,0,0)"/>
 <path style="opacity:0.2" d="M 44.727922,20.272 C 43.063366,18.6076 41.156024,17.3504 39.12631,16.4714 L 31.292892,33.7072 48.52862,25.8736 C 47.649582,23.844 46.392476,21.9366 44.727922,20.272 Z"/>
 <path style="fill:#57beff" d="M 44.727922,19.272 C 43.063366,17.6076 41.156024,16.3504 39.12631,15.4714 L 31.292892,32.7072 48.52862,24.8736 C 47.649582,22.844 46.392476,20.9366 44.727922,19.272 Z"/>
 <circle style="opacity:0.2" cx="32" cy="17" r="3"/>
 <circle style="fill:#94ff57" cx="32" cy="16" r="3"/>
 <circle style="opacity:0.2" cx="32" cy="49" r="3"/>
 <circle style="fill:#94ff57" cx="32" cy="48" r="3"/>
 <circle style="opacity:0.2" cx="33" cy="-48" r="3" transform="matrix(0,1,-1,0,0,0)"/>
 <circle style="fill:#94ff57" cx="32" cy="-48" r="3" transform="matrix(0,1,-1,0,0,0)"/>
 <circle style="opacity:0.2" cx="33" cy="-16" r="3" transform="matrix(0,1,-1,0,0,0)"/>
 <circle style="fill:#94ff57" cx="32" cy="-16" r="3" transform="matrix(0,1,-1,0,0,0)"/>
 <path style="opacity:0.2;fill:#ffffff" d="M 32 3 C 15.934 3 3 15.934 3 32 C 3 32.110856 3.0114705 32.218902 3.0175781 32.328125 C 3.3736217 16.576183 16.159477 4 32 4 C 47.840523 4 60.626378 16.576183 60.982422 32.328125 C 60.988523 32.218902 61 32.110856 61 32 C 61 15.934 48.066 3 32 3 z"/>
</svg>
